!!!ONB: MCCC : ILB0165_04 : Extracted Monophonic Melody
!!!COM: Beethoven, Ludwig van
!!!OPR: Piano Sonata No.4
!!!OMV: 4
!!!SCT: Op.7
!!!ODT: 1796///
**kern
*thru
*staff1
*>A
*clefG2
*k[b-e-a-]
*E-:
*M2/4
*MM60
8.ff
16ee-
=1
8ee-
[8dd
16dd]
16ff
16ee-
16cc
=2
8cc
[8b-
16b-]
16b
16cc
16a-
=3
16a-
16g
16b-
16e-
16e-
16d
16f
16e-
=4
8g
8f
8.ff
16ee-
=5
8ee-
[8dd
16dd]
16ff
16ee-
16cc
=6
8a
[8b-
16b-]
16b
16cc
16a-
=7
16g
16b-
16a-
16f
8e-
16g
16f
=8
8e-
8r
32G
32B-
32e-
32g
32b-
32ee-
32gg
32ff
=9
8ee-
8dd
16ee-
16ff
16gg
16aa
=10
8ccc
8bb-
32G
32B-
32e-
32g
32b-
32ee-
32gg
32ff
=11
8ee-
8dd
16ee-
16ff
16gg
16aa
=12
4bb-
8.fff
16eee-
=13
8eee-
[8ddd
16ddd]
16fff
16eee-
16ccc
=14
8aa
[8bb-
16bb-]
16bb
16ccc
16aa-
=15
16gg
16bb-
16aa-
16ff
8ee-
16gg
16ff
=16
8ee-
8r
16r
16B-
16B-
16B-
=17
16B-
16B-
16B-
16B-
16B-
16B-
8ee-
=18
8ee-
8dd
16B-
16B-
16B-
16B-
=19
16B-
16B-
16B-
16B-
8r
8dd
=20
8dd
8ee-
16e-
16e-
16e-
16e-
=21
16f
16f
16f
16f
16e-
16e-
8ccc
=22
8ccc
8bb
16e-
16e-
16e-
16e-
=23
16e-
16e-
16e-
16e-
16d
16d
8bb-
=24
8bb-
8aa
16d
16d
16d
16d
=25
16e-
16e-
16e-
16e-
16d
16bb-
16bb-
16bb-
=26
32aa
32bb-
32ccc
32bb-
8aa
16d
16d
16d
16d
=27
4e-
4d
=28
32a
32b-
32cc
32b-
16a
16f
32b-
32cc
32dd
32cc
16b-
16f
=29
4ee-
8.dd
16f
=30
32a
32b-
32cc
32b-
16a
16f
32b-
32cc
32dd
32cc
16b-
16b
=31
32cc
32dd
32ee-
32dd
16cc
16gg
16ee-
16ccc
16gg
16eee-
=32
32cc
32dd
32ee-
32dd
16cc
16aa
16ee-
16ccc
16aa
16eee-
=33
32cc
32dd
32ee-
32dd
16cc
16aa
16ee-
16ccc
16aa
16eee-
=34
16ddd
16aa
16bb-
16ff#
16gg
16dd
16ee-
16cc
=35
16ff
16cc#
16dd
16b-
16ee-
16b
16cc
16a
=36
4b-
8r
8dd
=37
8ee-
8gg
8r
8cc
=38
8dd
8ff
8ff
16.ff
64ee
64ff
=39
16ee-
16dd
16cc
16b-
16a
16b-
16b
16cc
=40
8f
8r
8r
8dd
=41
8gg
16.gg
64ff#
64gg
8r
8cc
=42
8ff
16.ff
64ee
64ff
16fff
16r
32eee
32fff
32eee
32fff
=43
16eee-
16ddd
16ccc
16bb-
16bb-
16aa
16gg
16ff
=44
16ff
32gg
32aa
32bb-
32ccc
32ddd
32eee-
16fff
32eee
32fff
32eee
32fff
32eee
32fff
=45
16r
32eee-
32ddd
16r
32ccc
32bb-
16r
32bb-
32aa
16r
32gg
32ff
=46
32ee
32ff
32gg
32aa
32bb-
32ccc
32ddd
32eee-
32eee
32fff
32eee
32fff
32eee
32fff
32eee
32fff
=47
32eee-
32ddd
32ccc
32bb-
32bb-
32aa
32gg
32ff
32ff
32ee-
32dd
32cc
32dd
32cc
32b-
32a
=48
24cc
24b-
24a
24cc
24b-
24a
24cc
24b-
24a
24cc
24b-
24a
=49
24cc
24b-
24a
24cc
24b-
24a
32cc
32b-
32a
32b-
48b
48cc
48cc#
48dd
48ee-
48ee
=50
4ff
8.ff
16ee-
=51
8ee-
[8dd
16dd]
16ff
16ee-
16cc
=52
8cc
[8b-
16b-]
16b
16cc
16a-
=53
16a-
16g
16b-
16e-
16e-
16d
16f
16e-
=54
8g
8f
8.ff
16ee-
=55
8ee-
[8dd
16dd]
16ff
16ee-
16cc
=56
8a
[8b-
16b-]
16b
16cc
16a-
=57
16g
16b-
16a-
16f
8e-
16g
16f
=58
8e-
8r
32G
32B-
32e-
32g
32b-
32ee-
32gg
32ff
=59
8ee-
8dd
16ee-
16ff
16gg
16aa
=60
8ccc
8bb-
32G
32B-
32e-
32g
32b-
32ee-
32gg
32ff
=61
32ee-
32dd
32cc
32b-
32a
32b-
32cc
32dd
16ee-
16ff
16gg
16aa
=62
2bb-
=63
2bb
=64
4ccc
8r
8ee-
*>B
=65
4gg
8r
8ccc
=66
4dd
8r
8gg
=67
4ddd
8r
8ddd
=68
32ee-
32gg
32ccc
32eee-
32fff
32eee-
32ddd
32eee-
32ee-
32gg
32bb-
32eee-
32fff
32eee-
32ddd
32eee-
=69
32ee-
32aa-
32ccc
32eee-
32fff
32eee-
32ddd
32eee-
32ee
32bb-
32ddd-
32eee
32fff
32eee
32ddd
32eee
=70
32r
32ggg
32ccc
32aa-
32r
32fff
32ccc
32aa-
32r
32ddd
32aa-
32ff
32r
32ddd
32aa-
32ff
=71
*>B1
32r
32eee-
32bb-
32gg
32ee-
32b-
32g
32e-
32r
32B-
32g
32b-
32r
32B
32f
32b
=72
4cc
8r
8ee-
=73
*>B
4gg
8r
8ccc
=74
4dd
8r
8gg
=75
4ddd
8r
8ddd
=76
32ee-
32gg
32ccc
32eee-
32fff
32eee-
32ddd
32eee-
32ee-
32gg
32bb-
32eee-
32fff
32eee-
32ddd
32eee-
=77
32ee-
32aa-
32ccc
32eee-
32fff
32eee-
32ddd
32eee-
32ee
32bb-
32ddd-
32eee
32fff
32eee
32ddd
32eee
=78
32r
32ggg
32ccc
32aa-
32r
32fff
32ccc
32aa-
32r
32ddd
32aa-
32ff
32r
32ddd
32aa-
32ff
=79
*>B2
32r
32eee-
32bb-
32gg
32ee-
32b-
32g
32e-
32r
32B-
32g
32b-
32r
32B-
32f
32b-
=80
*>C
4e
8r
8b-
=81
4ee
8r
8bb-
=82
4aa-
8r
8ccc
=83
4ccc
8r
8cc
=84
32B
32d
32g
32b
32cc
32b
32a#
32b
32f
32b
32dd
32ff
32gg
32ff
32ee
32ff
=85
32e-
32g
32cc
32ee-
32ff
32ee-
32dd
32ee-
32cc
32ee-
32gg
32ccc
32ddd
32ccc
32bb
32ccc
=86
32b
32dd
32gg
32bb
32ccc
32bb
32aa#
32bb
32ff
32bb
32ddd
32fff
32eee
32fff
32eee
32fff
=87
32ee-
32gg
32ccc
32eee-
32fff
32eee-
32ddd
32eee-
32cc
32ee-
32gg
32ccc
32ddd
32ccc
32bb
32ccc
=88
32bb
32ddd
32ccc
32bb
32aa-
32gg
32ff
32ee-
32dd
32cc
32b
32a-
32g
32f
32e-
32d
=89
4c
8r
8ee-
=90
4gg
8r
8ccc
=91
32c
32e
32g
32cc
32dd-
32cc
32b
32cc
32e
32g
32cc
32ee
32ff
32ee
32dd#
32ee
=92
32g
32cc
32ee
32gg
32aa-
32gg
32ff#
32gg
32cc
32ee
32gg
32ccc
32ddd-
32ccc
32bb
32ccc
=93
32cc
32ff
32aa-
32ccc
32ddd
32ccc
32bb
32ccc
32a-
32cc
32ff
32aa-
32bb-
32aa-
32gg
32aa-
=94
32f
32b
32dd
32ff
32gg
32ff
32ee
32ff
32d
32g
32b
32dd
32ee-
32dd
32cc#
32dd
=95
32r
32g
32cc
32ee-
32r
32a-
32dd
32ff
32r
32g
32cc
32ee-
32r
32f
32b
32dd
=96
*>C1
32r
32cc
32b
32cc
32b
32cc
32g
32e-
8c
8r
=97
*>C
4e
8r
8b-
=98
4ee
8r
8bb-
=99
4aa-
8r
8ccc
=100
4ccc
8r
8cc
=101
32B
32d
32g
32b
32cc
32b
32a#
32b
32f
32b
32dd
32ff
32gg
32ff
32ee
32ff
=102
32e-
32g
32cc
32ee-
32ff
32ee-
32dd
32ee-
32cc
32ee-
32gg
32ccc
32ddd
32ccc
32bb
32ccc
=103
32b
32dd
32gg
32bb
32ccc
32bb
32aa#
32bb
32ff
32bb
32ddd
32fff
32eee
32fff
32eee
32fff
=104
32ee-
32gg
32ccc
32eee-
32fff
32eee-
32ddd
32eee-
32cc
32ee-
32gg
32ccc
32ddd
32ccc
32bb
32ccc
=105
32bb
32ddd
32ccc
32bb
32aa-
32gg
32ff
32ee-
32dd
32cc
32b
32a-
32g
32f
32e-
32d
=106
4c
8r
8ee-
=107
4gg
8r
8ccc
=108
32c
32e
32g
32cc
32dd-
32cc
32b
32cc
32e
32g
32cc
32ee
32ff
32ee
32dd#
32ee
=109
32g
32cc
32ee
32gg
32aa-
32gg
32ff#
32gg
32cc
32ee
32gg
32ccc
32ddd-
32ccc
32bb
32ccc
=110
32cc
32ff
32aa-
32ccc
32ddd
32ccc
32bb
32ccc
32a-
32cc
32ff
32aa-
32bb-
32aa-
32gg
32aa-
=111
32f
32b
32dd
32ff
32gg
32ff
32ee
32ff
32d
32g
32b
32dd
32ee-
32dd
32cc#
32dd
=112
32r
32g
32cc
32ee-
32r
32a-
32dd
32ff
32r
32g
32cc
32ee-
32r
32f
32b
32dd
=113
*>C2
32c
32e-
32g
32cc
32dd
32cc
32b
32cc
32cc
32ff
32aa-
32ccc
32ddd
32ccc
32bb
32ccc
=114
*>D
32a-
32cc
32ff
32aa-
32bb-
32aa-
32gg
32aa-
32f
32b
32dd
32ff
32gg
32ff
32ee
32ff
=115
32f
32a-
32cc#
32dd
32ee-
32dd
32cc#
32dd
32f
32a-
32cc#
32dd
32ee-
32dd
32cc#
32dd
=116
32f
32a-
32cc#
32dd
32ee-
32dd
32cc#
32dd
32f
32a-
32cc#
32dd
32ee-
32dd
32cc#
32dd
=117
32f
32a-
32cc#
32dd
32ee-
32dd
32cc#
32dd
32f
32a-
32cc#
32dd
32ee-
32dd
32cc#
32dd
=118
32f
32a-
32cc#
32dd
32ee-
32dd
32cc#
32dd
8.ff
16ee-
=119
8ee-
[8dd
16dd]
16ff
16ee-
16cc
=120
8cc
[8b-
16b-]
16b
16cc
16a-
=121
16a-
16g
16b-
16e-
16e-
16d
16f
16e-
=122
8g
8f
8.ff
16ee-
=123
8ee-
[8dd
24dd]
24ee-
24dd
24ff
24ee-
24cc
=124
8a
[8b-
24b-]
24cc
24b
24dd
24cc
24a-
=125
24g
24a-
24g
24b-
24a-
24f
8e-
16g
16f
=126
8e-
8r
32G
32B-
32e-
32g
32b-
32ee-
32gg
32ff
=127
8ee-
8dd
16ee-
16ff
16gg
16aa
=128
8ccc
8bb-
32G
32B-
32e-
32g
32b-
32ee-
32gg
32ff
=129
8ee-
8dd
16ee-
16ff
16gg
16aa
=130
4bb-
8.fff
16eee-
=131
8eee-
[8ddd
16ddd]
16fff
16eee-
16ccc
=132
8aa
[8bb-
16bb-]
16bb
16ccc
16aa-
=133
16gg
16bb-
16aa-
16ff
8ee-
16gg
16ff
=134
8ee-
8r
16r
16B-
16B-
16B-
=135
16B-
16B-
16B-
16B-
16B-
16B-
8ee-
=136
8ee-
8dd
16B-
16B-
16B-
16B-
=137
16B-
16B-
16B-
16B-
16B-
16B-
8ee-
=138
8ee
8ff
16c
16c
16c
16c
=139
16c
16c
16c
16c
16c
16c
8ff
=140
8ff
8ee
16c
16c
16c
16c
=141
16c
16c
16c
16c
16c
16ff
16ff
16ff
=142
32ee
32ff
32gg
32ff
8ee
16f
16f
16f
16f
=143
16f
16f
16f
16f
16e-
16ee-
16ee-
16ee-
=144
32dd
32ee-
32ff
32ee-
8dd
16e-
16e-
16e-
16e-
=145
4a-
4g
=146
32d
32e-
32f
32e-
16d
16B-
32e-
32f
32g
32f
16e-
16b-
=147
4aa-
8.gg
16b-
=148
32dd
32ee-
32ff
32ee-
16dd
16b-
32ee-
32ff
32gg
32ff
16ee-
16ee
=149
32ff
32g
32a-
32g
16f
16cc
16a-
16ff
16cc
16aa-
=150
32f
32g
32a-
32g
16f
16dd
16a-
16ff
16dd
16aa-
=151
32dd
32ee-
32ff
32ee-
16dd
16aa-
16ff
16ddd
16aa-
16fff
=152
16eee-
16ddd
16eee-
16bb
16ccc
16gg
16aa-
16ff
=153
16bb-
16ff#
16gg
16ee-
16aa-
16ee
16ff
16dd
=154
4ee-
8r
8gg
=155
8aa-
8ccc
8r
8ff
=156
8gg
8bb-
8bb-
16.bb-
64aa
64bb-
=157
16aa-
16gg
16ff
16ee-
16dd
16ee-
16ee
16ff
=158
8b-
8r
8r
8ee
=159
8ccc
16.ccc
64bb
64ccc
8r
8dd
=160
8bb-
16.bb-
64aa
64bb-
8r
16.bb-
64aa
64bb-
=161
16aa-
16gg
16ff
16ee-
16ee-
16dd
16cc
16b-
=162
16b-
32cc
32dd
32ee-
32ff
32gg
32aa-
16bb-
32aa
32bb-
32aa
32bb-
32ccc
32bb-
=163
16r
32aa-
32gg
16r
32ff
32ee-
16r
32ee-
32dd
16r
32cc
32b-
=164
32a
32b-
32cc
32dd
32ee-
32ff
32gg
32aa-
32aa
32bb-
32aa
32bb-
32aa
32bb-
32ccc
32bb-
=165
32aa-
32gg
32ff
32ee-
32dd
32ee-
32ff
32ee-
32dd
32cc
32b-
32a
32ee-
32a
32ee-
32a
=166
32cc
32b-
32a
32b-
32b
32cc
32cc#
32dd
32ee-
32ee
32ff
32ff#
32gg
32aa-
32aa
32bb-
=167
24bb
24ccc
24ccc#
24ddd
24eee-
24eee
8.fff
16eee-
=168
8eee-
[8ddd
16ddd]
16fff
16eee-
16ccc
=169
8ccc
[8bb-
16bb-]
16bb-
16ccc
16aa-
=170
16aa-
16gg
16bb-
16ee-
16ee-
16dd
16ff
16ee-
=171
8gg
8ff
16r
8fff
[16eee
=172
16eee]
8eee-
8ddd
8ddd-
[16ccc
=173
16ccc]
8ccc-
8bb-
8aa
[16aa-
=174
16aa-]
16gg
24bb-
24aa-
24ff
8ee-
16gg
16ff
=175
*k[b-e-]
8ee-
8r
32G
32B-
32e-
32g
32b-
32ee-
32gg
32ff
=176
8ee-
8dd
16ee-
16ff
16gg
16aa
=177
8ccc
8bb-
32G
32B-
32e-
32g
32b-
32ee-
32gg
32ff
=178
32ee-
32dd
32cc
32b-
32a
32b-
32cc
32dd
16ee-
16ff
16gg
16aa
=179
2bb-
=180
4bb
4r
=181
4r
[8.ff#
16ff#]
=182
8ee
[8dd#
16dd#]
16ff#
16ee
16cc#
=183
8cc#
[8b
16b]
16b#
16cc#
16a
=184
16a
16g#
16b
16e
16e
16d#
16f#
16e
=185
16g#
16f#
16b
16e
16e
16d#
16f#
16e
=186
4r
[4aa-
=187
16aa-]
16gg
16bb-
16ee-
16ee-
16dd
16ff
16ee-
=188
16gg
16ff
16bb-
16ee-
16ee-
16dd
16ff
16ee-
=189
16gg
16ff
16aa-
16gg
16bb-
16aa-
16ccc
16bb
=190
16ddd
16ccc
16bb-
16aa-
16gg
16ff
16aa-
16dd
=191
4ee-
8r
8gg
=192
4bb-
8r
8eee-
=193
4f
8r
8ccc
=194
[4bb-
16bb-]
16aa
16aa-
16ff
=195
4ee-
8r
8gg
=196
4bb-
8r
8eee-
=197
4a-
8r
8eee-
=198
4a
8r
8eee-
=199
8b-
4bb-
16aa-
16gg
=200
[4gg
16gg]
16ff
16aa-
16dd
=201
4ee-
8r
[8gg
=202
8gg]
8ff
8r
8bb-
=203
4eee-
8r
[8gg
=204
8gg]
8ff
8r
8bb-
=205
4ee-
8r
8gg
=206
4bb-
8r
8eee-
=207
8e-
8r
8e-
8r
=208
8e-
8r
==
*-
